X: 3
T: Man Of Aran
R: reel
M: 4/4
L: 1/8
K: Bmin
FBfe dBBB|Aced cABG|FBfe dBBB|ABBd FGGG|FBfe dBBB|Aced cA (3B/c/d/z|Jf3e dBBB|cedc dBAG|FBfe dBBB|Aced cAAG|FBfe dBBB|ABBB JFGGG|FBfe dBBB|Aced cAB/c/d|fafe dBBB|cedc dBBc||dfff c/d/fed|ceec Jgeec|dfff dfed|cedc dBBB|dfff dffd|ceec gfec|dze/f/g fBBB|Jf3e fedc|dfaz dfed|ceee geec|dff2 dfed|cedc dBBB|dffa dfad|ceec g2fe|d2e/f/g fBB2|fz(Jf2 f)edB||


Tune 973	Setting 21231

